X: 65
T: Black Joak
M:6/8
L:1/8
S: 8: MCJLSH3 http://www.cpartington.plus.com/links/Walsh.abc
Z: Pete Stewart 2004
B: Walsh "Third Book of the most Celebrated jiggs, Lancashire hornpipes, ..."
K:G
D | D2GG2G | A2A A>GA | B>cB B>AG | A>BA A>GF | G3E2D | D.EFG2 ||
B | B2d d>ed | e>fgd2B | B2d d>ed | e>fgd2B | c>ca B>Bg | A>BA A>GA | B>cB B>AG | A>BA A>GF | G3E2D | D>EFG3 ||

%%sep 1 1 500
%%sep 1 1 500
